icons/coupon-2-line.svg

<svg viewBox="0 0 24 24" fill="currentColor" xmlns="http://www.w3.org/2000/svg"><path d="M2.00488 9.49979V3.99979C2.00488 3.4475 2.4526 2.99979 3.00488 2.99979H21.0049C21.5572 2.99979 22.0049 3.4475 22.0049 3.99979V9.49979C20.6242 9.49979 19.5049 10.6191 19.5049 11.9998C19.5049 13.3805 20.6242 14.4998 22.0049 14.4998V19.9998C22.0049 20.5521 21.5572 20.9998 21.0049 20.9998H3.00488C2.4526 20.9998 2.00488 20.5521 2.00488 19.9998V14.4998C3.38559 14.4998 4.50488 13.3805 4.50488 11.9998C4.50488 10.6191 3.38559 9.49979 2.00488 9.49979ZM14.0049 4.99979H4.00488V7.96755C5.4866 8.7039 6.50488 10.2329 6.50488 11.9998C6.50488 13.7666 5.4866 15.2957 4.00488 16.032V18.9998H14.0049V4.99979ZM16.0049 4.99979V18.9998H20.0049V16.032C18.5232 15.2957 17.5049 13.7666 17.5049 11.9998C17.5049 10.2329 18.5232 8.7039 20.0049 7.96755V4.99979H16.0049Z"/></svg>

<svg xmlns="http://www.w3.org/2000/svg" viewBox="0 0 24 24">
    <g>
        <path fill="none" d="M0 0h24v24H0z"/>
        <path d="M2 9.5V4a1 1 0 0 1 1-1h18a1 1 0 0 1 1 1v5.5a2.5 2.5 0 1 0 0 5V20a1 1 0 0 1-1 1H3a1 1 0 0 1-1-1v-5.5a2.5 2.5 0 1 0 0-5zM14 5H4v2.968a4.5 4.5 0 0 1 0 8.064V19h10V5zm2 0v14h4v-2.968a4.5 4.5 0 0 1 0-8.064V5h-4z"/>
    </g>
</svg>
